icons/ansi-a-landscape-24.svg

<?xml version="1.0" encoding="UTF-8"?><svg id="icons" xmlns="http://www.w3.org/2000/svg" viewBox="0 0 24 24"><defs><style>.cls-1{fill:none;}.cls-1,.cls-2,.cls-3{stroke-width:0px;}.cls-2{opacity:.25;}</style></defs><rect class="cls-1" width="24" height="24"/><path class="cls-3" d="M17.29102,3H0v18h6v-1H1V4h15v6h6v10h-5v1h6v-12.28998l-5.70898-5.71002ZM22,9h-5v-5h.20001l4.79999,4.79999v.20001ZM15.10919,22h.99078l-4.04999-9h-1l-4.04999,9h.99078l1.37775-3h4.36292l1.37775,3ZM9.82782,18l1.72217-3.75,1.72217,3.75h-3.44434Z"/><path class="cls-2" d="M16,7H1v-3h15v3Z"/></svg>

<svg xmlns="http://www.w3.org/2000/svg" viewBox="0 0 24 24"><path stroke-width="0" fill="none" d="M0 0h24v24H0z"/><path d="M17.291 3H0v18h6v-1H1V4h15v6h6v10h-5v1h6V8.71L17.291 3zM22 9h-5V4h.2L22 8.8V9zm-6.89 13h.99l-4.05-9h-1L7 22h.99l1.379-3h4.362l1.378 3zm-5.282-4l1.722-3.75L13.272 18H9.828z" stroke-width="0"/><path d="M16 7H1V4h15v3z" opacity=".25" stroke-width="0"/></svg>
